X: 1333
T: Casey the Whistler
R:Reel
N:Collected by Casey
B:O'Neill's 1333
Z:Transcribed by Trish O'Neil
M:C|
L:1/8
K:D
Ad{e}dB cBAG|(3ABc GF EFG2|Ad{e}dB cBAG|(3ABc GE T(ED)D2:|
FEFG ABcA|d2(dc) AGFD|FEFG ABcA|d2cAG2AG|
FEFG ABcA|d2dcABc2|(3ded cAG2(FG)|(3ABc (Bd) cAGE|]


